X: 30909
T: Over The Fields Of Turnips
R: jig
M: 6/8
K: Gmajor
B2A|GBd g2f|f3 e2D|DFA d2c|c3 B2A|GBd g2f|f3 e2D|DFA c2F|G3 G2||
B|B2B B2e|e3 ^d2c|B2A G2F|G2F E2B|BBB B2e|e3 ^d2c|B2A G2F|E3 F2||
b2|bag gfe|dBd dBd|bag bd'b|baa abb|bag gfe|dBd dBd|bd'b aga|bgg g2||
g|g2e e2g|d2B B2d|g2e f2g|a2g g2gb|bd'b agf|e3 e2a|aba gfe|d3 b3||

